X:1
T:Gábor Áron rézágyúja
C:Hungarian soldier's song
Z:Public Domain
L:1/4
M:4/4
K:C
V:1 treble nm="Voice"
%%MIDI program 52
V:1
 c B d c | A G F E | F E D G | C2 C z!fine! :| c/ d3/2 e/ d3/2 | c2 G z | c d e/d/c/B/ | %7
w: Gá- bor Á- ron|réz- á- gyú- ja|fel van vi- rá-|goz- va,|Ne- héz a réz-|á- gyú:|fel- szánt- ja a he- gyet,|
 c2 G z!D.C.! |] %8
w: völ- gyet.-|

